X: 1
T: Realignment Of Wheels, The
M: 6/8
L: 1/8
R: jig
K: Dmaj
|:c2e eaa| age dcA| eAA cae| dcA GAB|
c2e eaa| age dcA| cae dcG| AAA A2B :|
|: c2A Aaf| g2d dcd| f2d dcd| a (3cBA GAB|
c2A Aaf| g2d dcd| (4fgae dcG | AAA A2B :|
